svg/archive_remove.svg

<svg xmlns="http://www.w3.org/2000/svg" viewBox="0 0 24 24"><path d="M21 7H3V3h18zm-8 12c0 .7.13 1.37.35 2H4V8h16v5.09c-.33-.05-.66-.09-1-.09-3.31 0-6 2.69-6 6m2-6v-1.5c0-.28-.22-.5-.5-.5h-5c-.28 0-.5.22-.5.5V13zm7.54 3.88-1.42-1.41L19 17.59l-2.12-2.12-1.41 1.41L17.59 19l-2.12 2.12 1.41 1.42L19 20.41l2.12 2.13 1.42-1.42L20.41 19z"/></svg>

<svg xmlns="http://www.w3.org/2000/svg" id="mdi-archive-remove" viewBox="0 0 24 24"><path d="M21 7H3V3H21V7M13 19C13 19.7 13.13 20.37 13.35 21H4V8H20V13.09C19.67 13.04 19.34 13 19 13C15.69 13 13 15.69 13 19M15 13V11.5C15 11.22 14.78 11 14.5 11H9.5C9.22 11 9 11.22 9 11.5V13H15M22.54 16.88L21.12 15.47L19 17.59L16.88 15.47L15.47 16.88L17.59 19L15.47 21.12L16.88 22.54L19 20.41L21.12 22.54L22.54 21.12L20.41 19L22.54 16.88Z" /></svg>
